X:1
T:Venid y vamos todos
T:Venid y vamos todos
L:1/8
Q:3/8=64
M:6/8
K:A
V:1 treble nm="Piano" snm="Pno."
V:1
"^\n" z4 z E | A2 G BAF | E2 D C2 E | F2 E F2 E | EDC B,2 E | A2 G BAF | E2 D C2 A | GFG A2 ^D | %8
 E3 z2 E | B2 E F2 E | E2 A A2 E | B2 E F2 E | E2 A A2 E | A2 =G GFE | F3 F2 F | B2 A AGF | %16
 G3 G2 E | F2 G A2 B | c3 B2 B | A2 A GFG | A3 z2 A | G2 F G2 F | E2 C B,2 B, | ^DCB, FED | %24
 A3 G2 A | G2 F G2 F | FEC B,2 B, | ^DCB, G3 | F3 E2- E- | E z E GFE | B3 A3 | G4 z2 |] %32

